resources/svg/garage.svg

<svg xmlns="http://www.w3.org/2000/svg" viewBox="0 0 15 15" fill="currentColor"><path d="M7.20938 0.0931333C7.38323 -0.0310444 7.61677 -0.0310444 7.79062 0.0931333L14.7906 5.09313C14.922 5.18699 15 5.33852 15 5.5V14.5C15 14.7761 14.7761 15 14.5 15H13V7H2V15H0.5C0.223858 15 0 14.7761 0 14.5V5.5C0 5.33852 0.0779828 5.18699 0.209381 5.09313L7.20938 0.0931333Z" fill="black"/><path fill-rule="evenodd" clip-rule="evenodd" d="M3 15H12V11H3V15ZM9 13H6V12H9V13Z" fill="black"/><path d="M12 10V8H3V10H12Z" fill="black"/></svg>

<svg xmlns="http://www.w3.org/2000/svg" viewBox="0 0 15 15" fill="currentColor"><path d="M7.21.093a.5.5 0 01.58 0l7 5A.5.5 0 0115 5.5v9a.5.5 0 01-.5.5H13V7H2v8H.5a.5.5 0 01-.5-.5v-9a.5.5 0 01.21-.407l7-5z" fill="currentColor"/><path fill-rule="evenodd" clip-rule="evenodd" d="M3 15h9v-4H3v4zm6-2H6v-1h3v1z" fill="currentColor"/><path d="M12 10V8H3v2h9z" fill="currentColor"/></svg>
